src/images/icons/increase.svg

<svg width="32" height="32" viewBox="0 0 32 32" fill="currentColor" xmlns="http://www.w3.org/2000/svg">
<path d="M3.5726 28.4533C2.83478 28.4533 2.82821 27.3138 3.58888 27.3138H4.41363C4.59268 27.3138 4.73919 27.1673 4.73919 26.9883V22.9568C4.73919 22.3436 5.23838 21.8444 5.85152 21.8444H8.75442C9.36756 21.8444 9.86675 22.3436 9.86675 22.9568V26.9883C9.86675 27.4439 10.8706 27.4749 10.8706 26.9883V25.1869C10.8706 24.4301 12.01 24.4454 12.01 25.2031V26.9883C12.01 27.1673 12.1565 27.3138 12.3356 27.3138H14.5331C14.7122 27.3138 14.8587 27.1673 14.8587 26.9883V20.3414C14.8587 20.1624 14.7122 20.0159 14.5331 20.0159H12.3356C12.1565 20.0159 12.01 20.1624 12.01 20.3414V23.5536C12.01 24.3104 10.8706 24.2951 10.8706 23.5374V19.9888C10.8706 19.3756 11.3697 18.8764 11.9829 18.8764H14.8858C15.4989 18.8764 15.9981 19.3756 15.9981 19.9888V26.9883C15.9981 27.4439 17.0019 27.4749 17.0019 26.9883V17.0207C17.0019 16.4076 17.5011 15.9084 18.1143 15.9084H21.0172C21.6303 15.9084 22.1295 16.4076 22.1295 17.0207V26.9883C22.1295 27.4749 23.1333 27.4439 23.1333 26.9883V14.0527C23.1333 13.4396 23.6325 12.9404 24.2456 12.9404H27.1485C27.7617 12.9404 28.2609 13.4396 28.2609 14.0527V18.2145C28.2609 18.9492 27.1214 18.9492 27.1214 18.2145V14.4054C27.1214 14.2264 26.9749 14.0798 26.7958 14.0798H24.5983C24.4193 14.0798 24.2728 14.2264 24.2728 14.4054V26.9883C24.2728 27.1673 24.4193 27.3138 24.5983 27.3138H26.7958C26.9749 27.3138 27.1214 27.1673 27.1214 26.9883V19.8423C27.1214 19.0855 28.2609 19.1008 28.2609 19.8585V26.9829C28.2609 27.1619 28.4074 27.3084 28.5864 27.3084H29.4112C30.172 27.3084 30.1652 28.4479 29.4275 28.4479H3.5726V28.4533ZM18.4832 17.0479C18.3042 17.0479 18.1577 17.1944 18.1577 17.3734V26.9883C18.1577 27.1673 18.3042 27.3138 18.4832 27.3138H20.6808C20.8598 27.3138 21.0063 27.1673 21.0063 26.9883V17.3734C21.0063 17.1944 20.8598 17.0479 20.6808 17.0479H18.4832ZM6.20963 22.9839C6.03057 22.9839 5.88407 23.1304 5.88407 23.3095V26.9883C5.88407 27.1673 6.03057 27.3138 6.20963 27.3138H8.40716C8.58622 27.3138 8.73272 27.1673 8.73272 26.9883V23.3095C8.73272 23.1304 8.58622 22.9839 8.40716 22.9839H6.20963Z"/>
<path d="M6.65999 15.1868C11.0008 13.8465 14.6145 11.9746 17.4089 9.61426C17.9743 9.13811 18.7034 10.0024 18.1414 10.4878C15.5586 12.6691 12.303 14.4542 8.46142 15.7999C8.33679 15.8414 8.39117 16.0115 8.51025 16.0115C10.8543 15.7131 13.0572 15.1325 15.0649 14.286C18.4887 12.8427 21.2939 10.6398 23.4155 7.73686C23.6011 7.48623 23.9475 7.43684 24.2022 7.60664L24.6906 7.94305C24.7597 7.98912 24.8776 7.93952 24.8588 7.84538L24.5441 4.6766C24.5252 4.48127 24.3324 4.35538 24.1371 4.39445L21.0551 5.1975C20.9693 5.21896 20.9513 5.33795 21.0172 5.39283L21.5055 5.72924C21.7388 5.89202 21.8148 6.20673 21.69 6.45633C21.6629 6.50516 21.0443 7.70973 19.3839 9.35381C18.8707 9.86705 18.0396 9.07377 18.5809 8.54534C19.4925 7.63919 20.0676 6.87956 20.3878 6.40207C20.404 6.37494 20.3986 6.34238 20.3715 6.3261L19.1615 5.48508C18.7574 5.2236 18.8906 4.5734 19.346 4.45956L24.8642 3.02167C25.1934 2.94851 25.5528 3.15618 25.5804 3.51544L26.1502 9.1856C26.2156 9.65993 25.6355 9.98219 25.2603 9.71735L24.0557 8.88175C24.0286 8.86818 23.9978 8.86547 23.9798 8.8926C21.7822 11.7195 18.939 13.8899 15.5206 15.3333C12.9324 16.4239 10.0892 17.0858 7.06151 17.2975C5.83699 17.2975 5.43067 15.5756 6.65999 15.1868Z"/>
</svg>

<svg xmlns="http://www.w3.org/2000/svg" fill="currentColor" viewBox="0 0 32 32">
  <path d="M3.573 28.453a.566.566 0 0 1-.57-.624.584.584 0 0 1 .586-.515h.825a.326.326 0 0 0 .325-.326v-4.031c0-.613.5-1.113 1.112-1.113h2.903c.614 0 1.113.5 1.113 1.113v4.031c0 .18.146.326.325.326h.353a.327.327 0 0 0 .325-.326v-1.801a.57.57 0 0 1 .57-.57h.055a.584.584 0 0 1 .515.586v1.785c0 .18.146.326.326.326h2.197a.327.327 0 0 0 .326-.326v-6.646a.327.327 0 0 0-.326-.326h-2.197a.327.327 0 0 0-.326.326v3.212a.57.57 0 0 1-.57.57h-.054a.584.584 0 0 1-.515-.587V19.99c0-.613.499-1.113 1.112-1.113h2.903c.613 0 1.112.5 1.112 1.113v7c0 .178.147.325.326.325h.352c.18 0 .326-.147.326-.326v-9.967c0-.613.5-1.113 1.112-1.113h2.903c.613 0 1.113.5 1.113 1.113v9.967c0 .18.146.326.325.326h.353a.326.326 0 0 0 .325-.326V14.053c0-.613.5-1.113 1.113-1.113h2.902c.614 0 1.113.5 1.113 1.113v4.162a.57.57 0 1 1-1.14 0v-3.81a.327.327 0 0 0-.325-.325h-2.198a.327.327 0 0 0-.325.325v12.583c0 .18.146.326.325.326h2.198a.326.326 0 0 0 .325-.326v-7.146a.57.57 0 0 1 .57-.57h.054a.584.584 0 0 1 .516.587v7.124c0 .179.146.325.325.325h.825c.304 0 .559.228.586.516a.566.566 0 0 1-.57.624H3.573v.005Zm14.91-11.405a.327.327 0 0 0-.325.326v9.614c0 .18.146.326.325.326h2.198a.326.326 0 0 0 .325-.326v-9.614a.327.327 0 0 0-.325-.326h-2.198ZM6.21 22.984a.327.327 0 0 0-.326.325v3.68c0 .178.147.325.326.325h2.197c.18 0 .326-.147.326-.326V23.31a.327.327 0 0 0-.326-.326H6.21Zm.765-5.687c-.527 0-.96-.363-1.058-.878a1.071 1.071 0 0 1 .743-1.232c4.34-1.34 7.954-3.212 10.749-5.573a.573.573 0 0 1 .608-.081.554.554 0 0 1 .325.564.564.564 0 0 1-.2.39c-2.583 2.182-5.839 3.967-9.68 5.313a.104.104 0 0 0-.071.12c.01.053.054.092.103.092h.016c2.344-.299 4.547-.88 6.555-1.726 3.424-1.443 6.229-3.646 8.35-6.55a.57.57 0 0 1 .787-.13l.488.337c.017.01.038.022.06.022.033 0 .06-.011.082-.038a.094.094 0 0 0 .027-.082l-.315-3.168a.325.325 0 0 0-.407-.283l-3.082.804c-.043.01-.07.043-.081.086a.118.118 0 0 0 .043.109l.489.336a.578.578 0 0 1 .184.727c-.027.05-.646 1.254-2.306 2.898a.562.562 0 0 1-.402.168.568.568 0 0 1-.401-.977c.911-.906 1.487-1.665 1.807-2.143.016-.027.01-.06-.017-.076l-1.21-.84a.549.549 0 0 1-.233-.57.558.558 0 0 1 .418-.456l5.518-1.438c.049-.011.098-.022.147-.022.293 0 .548.233.57.515l.57 5.67a.537.537 0 0 1-.131.43.595.595 0 0 1-.445.205.545.545 0 0 1-.315-.103l-1.204-.835a.072.072 0 0 0-.033-.011.05.05 0 0 0-.043.022c-2.198 2.827-5.041 4.997-8.46 6.44-2.588 1.09-5.43 1.753-8.459 1.964h-.086Z"/>
</svg>
